X: 2124
T: The Three Sea Captains
B: nick
B: to learn
M:6/8
R: jig
Q: 3/8=100
K:Gmajor
V:1 
D|G3 BGB|c2A F2D|GDG BGB|d2B G3|
 cec A3|BdB G3|A2B c2B|ABG FED|
 GDG BGB|c2A F2D|GDG BGB|d2B G3|
 cec A3|BdB G3|EcB AGF|G3 G2:|
 d|gfg dcB|ABc def|gfg dBd|e2c A2d|
 g2a bge|f2g afd|e3 ed^c|d3 z2 B|
 c2d ecA|B2c dBG|A2B c2B|ABG FED|
 GDG BGB|c2A F2D|G3 BGB|d2B G3|
 cec A3|BdB G3|EcB AGF|G3 G2:|
% abcbook-tune_id 634562a32547dd8f42482401


% abcbook-boost 0
% abcbook-tablature 
% abcbook-transpose 
% abcbook-lastupdated 1666007787098
% abcbook-soundfonts 
% abcbook-repeats 3


